devices/symbolic/computer-apple-ipad-symbolic.svg

<svg xmlns="http://www.w3.org/2000/svg" viewBox="0 0 16 16">
  <path fill="#bebebe" d="M3 1C2 1 2 2 2 2v12c0 1 1 1 1 1h10s1 0 1-1V2s0-1-1-1H3zm1 2.004h8v9.002H4V3.004z"/>
</svg>

<svg xmlns="http://www.w3.org/2000/svg" viewBox="0 0 16 16">
  <defs id="defs3051">
    <style type="text/css" id="current-color-scheme">
      .ColorScheme-Text {
        color:#4d4d4d;
      }
      </style>
  </defs>
 <path 
     style="fill:#bebebe;fill-opacity:1;stroke:none" 
     class="ColorScheme-Text"
     d="M 3 1 C 2 1 2 2 2 2 L 2 14 C 2 15 3 15 3 15 L 13 15 C 13 15 14 15 14 14 L 14 2 C 14 2 14 1 13 1 L 3 1 z M 4 3.0039062 L 12 3.0039062 L 12 12.005859 L 4 12.005859 L 4 3.0039062 z "
     />
</svg>
